packages/components/Atoms/Icon/assets/img/rpl_icon_xlsx.svg

<svg width="20" height="20" viewBox="0 0 20 20" overflow="visible" xmlns="http://www.w3.org/2000/svg">
  <path fill-rule="evenodd" clip-rule="evenodd" d="M10 5V2.824L12.176 5H10ZM10.003 0H1C0.447 0 0 0.447 0 1V19C0 19.553 0.447 20 1 20H14C14.553 20 15 19.553 15 19V16H13V18H2V2H8V6C8 6.553 8.447 7 9 7H13V9H15V4.997L10.003 0Z"
    fill="inherit" />
  <path fill-rule="evenodd" clip-rule="evenodd" d="M6.25881 15.0127L5.43981 13.4787L4.61981 15.0127H3.21881L4.77381 12.4557L3.31781 10.0267H4.71081L5.43981 11.4337L6.16781 10.0267H7.56181L6.10481 12.4557L7.65881 15.0127H6.25881Z"
    fill="inherit" />
  <path fill-rule="evenodd" clip-rule="evenodd" d="M8.02148 15.0127V10.0267H9.24749V13.9197H11.3405V15.0127H8.02148Z" fill="inherit"
  />
  <path fill-rule="evenodd" clip-rule="evenodd" d="M13.4756 15.0546C12.7116 15.0546 12.0876 14.9146 11.5836 14.3966L12.3686 13.6126C12.6276 13.8706 13.0826 13.9616 13.4826 13.9616C13.9656 13.9616 14.1966 13.8006 14.1966 13.5136C14.1966 13.3946 14.1686 13.2966 14.0986 13.2196C14.0356 13.1566 13.9306 13.1076 13.7696 13.0866L13.1666 13.0026C12.7256 12.9396 12.3896 12.7926 12.1646 12.5616C11.9346 12.3236 11.8226 11.9876 11.8226 11.5596C11.8226 10.6496 12.5086 9.98459 13.6436 9.98459C14.3576 9.98459 14.8966 10.1526 15.3246 10.5786L14.5536 11.3496C14.2386 11.0336 13.8256 11.0556 13.6086 11.0556C13.1806 11.0556 13.0056 11.3006 13.0056 11.5176C13.0056 11.5806 13.0276 11.6716 13.1036 11.7486C13.1666 11.8116 13.2726 11.8746 13.4476 11.8966L14.0496 11.9806C14.4976 12.0426 14.8206 12.1836 15.0306 12.3936C15.2956 12.6526 15.4016 13.0236 15.4016 13.4866C15.4016 14.5006 14.5256 15.0546 13.4756 15.0546Z"
    fill="inherit" />
  <path fill-rule="evenodd" clip-rule="evenodd" d="M18.5996 15.0127L17.7806 13.4787L16.9606 15.0127H15.5596L17.1146 12.4557L15.6586 10.0267H17.0516L17.7806 11.4337L18.5086 10.0267H19.9026L18.4456 12.4557L19.9996 15.0127H18.5996Z"
    fill="inherit" />
</svg>

<svg width="20" height="20" overflow="visible" xmlns="http://www.w3.org/2000/svg"><path fill-rule="evenodd" clip-rule="evenodd" d="M10 5V2.824L12.176 5H10zm.003-5H1a1 1 0 00-1 1v18a1 1 0 001 1h13a1 1 0 001-1v-3h-2v2H2V2h6v4a1 1 0 001 1h4v2h2V4.997L10.003 0z" fill="inherit"/><path fill-rule="evenodd" clip-rule="evenodd" d="M6.259 15.013l-.82-1.534-.82 1.534h-1.4l1.555-2.557-1.456-2.43H4.71l.729 1.408.728-1.407h1.394l-1.457 2.429 1.554 2.557h-1.4zM8.021 15.013v-4.986h1.226v3.893h2.094v1.093H8.02zM13.476 15.055c-.764 0-1.388-.14-1.892-.658l.785-.784c.259.258.714.349 1.114.349.483 0 .714-.161.714-.448a.416.416 0 00-.098-.294c-.063-.063-.168-.112-.33-.133l-.602-.084c-.441-.063-.777-.21-1.002-.441-.23-.238-.342-.574-.342-1.002 0-.91.686-1.575 1.82-1.575.715 0 1.254.168 1.682.594l-.771.77c-.315-.315-.728-.293-.945-.293-.428 0-.603.245-.603.462 0 .063.022.154.098.23a.57.57 0 00.344.149l.602.084c.448.062.77.203.98.413.266.259.372.63.372 1.093 0 1.014-.876 1.568-1.926 1.568zM18.6 15.013l-.82-1.534-.82 1.534h-1.4l1.555-2.557-1.456-2.43h1.393l.729 1.408.728-1.407h1.394l-1.457 2.429L20 15.013h-1.4z" fill="inherit"/></svg>
